X:1
T:Swan Lake Theme
T:Swan Lake Theme
T:from "Swan Lake"
T:Pyotr Ilyich Tchaikovsky (1840-1893)
C:PyotrIlyich Tchaikovsky
%%score [ 1 2 3 ]
L:1/8
Q:1/4=80
M:4/4
K:Eb
V:1 treble nm="Flöte" snm="Fl."
V:2 treble nm="Flöte" snm="Fl."
V:3 treble nm="Flöte" snm="Fl."
V:1
 z8 |!mf! g4 cdef | g3 e g3 e | g3 c ecAe | c4- cfed | g4 cdef | g3 e g3 e | g3 c ecAe | c6 c2 | %9
 d2 e2 f2!<(! (ga | b3) a g2 (ab | c'3) b a2 (bc'!<)! | d'3)!>(! c' (gedc)!>)! | d2 e2 f2!<(! (ga | %14
 b3) a g2 (ab | c'3) b a2 (bc' | _d'3) a f2 (ad'!<)! |!f! =d'3) =a d'3 g | c'4!mf! c4 | e8 | %20
 c4 e2 f2 | e4 f4 | e4 f4 | e8- | e4 e2 f2 |!>(! e6!>)!!mp! (3ccc | (3ddd (3ddd (3ddd (3ddd | %27
 (3ddd (3ddd (3ddd (3ddd | (3fff (3fff (3fff (3fff | (3^fff (3fff (3ggg (3eec | %30
 (3ddd (3ddd (3ddd (3ddd | (3ddd (3ddd (3ddd (3ddd | (3fff (3ccc (3ccc (3ccc | %33
 (3_ddd (3ddd (3ccc (3ccc | (3=BBB (3BBB (3ccc (3ccc | (3_ddd (3ddd (3ccc (3ccc | %36
 (3=BBB (3BBB (3ccc (3ccc |!ff! (3_d'2 a2 d'2 (3d'2 a2 d'2 | (3:2:1a6 (3:2:2g4 g2 | %39
 (3_d'2 a2 d'2 (3d'2 a2 d'2 | (3:2:1=d'6- (3:2:2d'4 d'2 | (3e'2 _c'2 e'2 (3e'2 c'2 e'2 | %42
 (3:2:1e'6- (3:2:2e'4 =d'2 | (3:2:2e'4 =d'2 (3:2:2e'4 =d'2 |!ff! g'!>(!f'd'=b gfd=B | %45
 G!>)! z z2 z4 |!ff! g'4 c'd'e'f' | g'3 e' g'3 e' |!>(! g'2 e'2 c'2 g2 | e'2 c'2 g2 e2!>)! | %50
!ff! g'4 c'd'e'f' | g'3 e' g'3 e' | z8 | z8 | z8 |] %55
V:2
!>(! (6:4:6GGGGGG (6:4:6GGGGGG!>)! |!p! (6:4:6GGGGGG (6:4:6AAAAAA | (6:4:6GGGGGG (6:4:6GGGGGG | %3
 (6:4:6GGGGGG _GGFF | EEAA GGFF | (6:4:6EEEEEE (6:4:6EEEccc | (6:4:6cccccc (6:4:6dddeee | %7
 (6:4:6fffeee (6:4:6eeefff | (6:4:6eeeggg (6:4:6cccGGG | B8 | B8 | c8 | d4 =B2 G2 | B8 | B8 | c8 | %16
 _d8 | d8 |!ff! g'4 c'd'e'f' | g'3 e' g'3 e' | g'3 c' e'c'ae' | c'4- c'f'e'd' | g'4 c'd'e'f' | %23
 g'3 e' g'3 e' | g'3 c' e'c'ae' |!>(! c'6!>)!!ff! c2 | d2 e2 f2 (ga | b3) a g2 (ab | %28
 c'3) b a2 (bc' | d'3) c' (gedc) | d2 e2 f2 (ga | b3) a g2 (ab | c'3) b a2 bc' | %33
 (3_d'2 a2 d'2 (3:2:2c'4 c'2 | (3=b2 g2 b2 (3:2:2c'4 c'2 | (3_d'2 a2 d'2 (3:2:2c'4 c'2 | %36
 (3=b2 g2 b2 (3:2:2c'4 c'2 |!mf! f8- | f8- | f8- | f8 | g8- | g8 | g4 g4 | z8 | %45
!ff! g'!>(!f'd'=b gfed!>)! |!mf! c'4 z4 | z2 c'2 z2 c'2 |!>(! z c' z g z e z c | %49
 z g z e z c z G!>)! |!ff! g4 cdef | g3 e g3 e | g4 cdef | g3 e g3 e |!>(! c8!>)! |] %55
V:3
!>(! (6:4:6cGcegc' (6:4:6e'c'gecG!>)! |!p! (6:4:6cGcegc' (6:4:6FAcfac' | %2
 (6:4:6cGcegc' (6:4:6e'c'gecG | (6:4:6cGcegc' cc'cc' | g'ec'A gEcF | (6:4:6cGEcGe c' z z2 | %6
 (6:4:6eeeeee (6:4:6=BBBccc | (6:4:6=BBBccc (3ccc cB | (6:4:6ccceee (6:4:6GGGEEE | %9
 (3z df (3Bfd (3z df (3Bfd | (3z Bd (3GBd g z z2 | z2 (3Acf a z z2 | z2 (3^f=ad' g' z z2 | %13
 (3z df (3Bfd (3z df (3Bfd | (3z Bd (3GBd g z z2 | z2 (3Acf z2 (3Ac_g | (3_dfa (3dfa _d' z z2 | %17
 _g4 f4 |!mf! e4 f4 | g8 | e4 a2 a2 | c'8 | g4 a4 | g8- | g4 a2 a2 |!>(! g6!>)!!mp! (3ggg | %26
 (3bbb (3bbb (3bbb (3bbb | (3bbb (3bbb (3bbb (3bbb | (3c'c'c' (3c'c'c' (3c'c'c' (3c'c'c' | %29
 (3d'd'd' (3d'd'd' (3d'd'd' (3c'c'g | (3bbb (3bbb (3bbb (3bbb | (3bbb (3bbb (3bbb (3bbb | %32
 (3c'c'c' (3aaa (3aaa (3aaa | (3aaa (3aaa (3aaa (3aaa | (3ggg (3ggg (3aaa (3aaa | %35
 (3aaa (3aaa (3aaa (3aaa | (3ggg (3ggg (3aaa (3aaa |!mf! A4 A4 | (3:2:1A6 (3:2:2G4 G2 | A4 A4 | %40
 A8 | _c8 | _c8 | _c4 c4 | z8 | z8 |!mf! e'4 z4 | z2 e'2 z2 e'2 |!>(! z e' z c' z g z e | %49
 z c' z g z e z c!>)! | z8 | z8 |!ff! G4 CDEF | G3 E G3 E |!>(! C8!>)! |] %55

